app/assets/images/heroicons/micro/cube.svg

<svg width="16" height="16" viewBox="0 0 16 16" fill="none" xmlns="http://www.w3.org/2000/svg">
<path d="M8.3721 1.34882C8.14153 1.21706 7.85847 1.21706 7.6279 1.34882L2.81794 4.09736L7.99998 7.13075L13.182 4.09735L8.3721 1.34882Z" fill="#0F172A"/>
<path d="M14 5.35664L8.74998 8.42982V14.4353L13.6221 11.6512C13.8558 11.5177 14 11.2691 14 11V5.35664Z" fill="#0F172A"/>
<path d="M7.24998 14.4352V8.42982L2 5.35666V11C2 11.2691 2.14421 11.5177 2.3779 11.6512L7.24998 14.4352Z" fill="#0F172A"/>
</svg>

<svg xmlns="http://www.w3.org/2000/svg" viewBox="0 0 16 16" fill="currentColor" aria-hidden="true" data-slot="icon">
  <path d="M8.372 1.349a.75.75 0 0 0-.744 0l-4.81 2.748L8 7.131l5.182-3.034-4.81-2.748ZM14 5.357 8.75 8.43v6.005l4.872-2.784A.75.75 0 0 0 14 11V5.357ZM7.25 14.435V8.43L2 5.357V11c0 .27.144.518.378.651l4.872 2.784Z"/>
</svg>
